X: 4172
T: Blue Riband
R: reel
M: 4/4
K: Gmajor
|:d2 BG F>GAB|c2 AF G>ABc|d2 BG F>GAB|ccAF G2 G2:|
|:F>AFA G>BGB|A>cAc B2 G2|F>AFA G>BGB|1 dcBA d2 d2:|2 dcBA G2G2||

